<?xml version="1.0" encoding="UTF-8"?>
<map version="1.10" tiledversion="1.11.2" orientation="orthogonal" renderorder="right-down" width="30" height="20" tilewidth="32" tileheight="32" infinite="0" nextlayerid="11" nextobjectid="32">
 <tileset firstgid="1" name="Furniture" tilewidth="32" tileheight="32" tilecount="1424" columns="16">
  <image source="../Interior tilesets/Furniture.png" width="512" height="2848"/>
 </tileset>
 <tileset firstgid="1425" name="Room_Builder" tilewidth="32" tileheight="32" tilecount="391" columns="17">
  <image source="../Interior tilesets/Room_Builder.png" width="544" height="736"/>
 </tileset>
 <layer id="1" name="Floors" width="30" height="20">
  <data encoding="csv">
0,0,0,0,0,0,0,0,0,0,0,0,0,0,0,0,0,0,0,0,0,0,0,0,0,0,0,0,0,0,
0,0,0,0,0,0,0,0,0,0,0,0,0,0,0,0,0,0,0,0,0,0,0,0,0,0,0,0,0,0,
0,0,0,0,0,0,0,0,0,0,0,0,0,1752,1753,1753,1754,0,0,0,0,0,0,0,0,0,0,0,0,0,
0,0,0,0,0,0,0,0,0,0,0,0,0,1752,1753,1753,1754,0,0,0,0,0,0,0,0,0,0,0,0,0,
0,0,0,0,0,0,0,0,0,0,0,0,0,1752,1753,1753,1754,0,0,0,0,0,0,0,0,0,0,0,0,0,
0,0,0,0,0,0,0,0,0,0,0,0,0,1752,1753,1753,1754,0,0,0,0,0,0,0,0,0,0,0,0,0,
0,0,0,0,0,0,0,0,0,0,0,0,0,1752,1753,1753,1754,0,0,0,0,0,0,0,0,0,0,0,0,0,
0,0,0,0,0,0,0,0,0,0,0,0,0,1752,1753,1753,1754,0,0,0,0,0,0,0,0,0,0,0,0,0,
2684356312,2684356312,2684356312,2684356312,2684356312,2684356312,2684356312,2684356312,2684356312,2684356312,2684356312,2684356312,2684356312,1753,1753,1753,1753,2684356312,2684356312,2684356312,2684356312,2684356312,2684356312,2684356312,2684356312,2684356312,2684356312,2684356312,2684356312,2684356312,
1753,1753,1753,1753,1753,1753,1753,1753,1753,1753,1753,1753,1753,1753,1753,1753,1753,1753,1753,1753,1753,1753,1753,1753,1753,1753,1753,1753,1753,1753,
1753,1753,1753,1753,1753,1753,1753,1753,1753,1753,1753,1753,1753,1753,1753,1753,1753,1753,1753,1753,1753,1753,1753,1753,1753,1753,1753,1753,1753,1753,
2684356314,2684356314,2684356314,2684356314,2684356314,2684356314,2684356314,2684356314,2684356314,2684356314,2684356314,2684356314,2684356314,1753,1753,1753,1753,2684356314,2684356314,2684356314,2684356314,2684356314,2684356314,2684356314,2684356314,2684356314,2684356314,2684356314,2684356314,2684356314,
0,0,0,0,0,0,0,0,0,0,0,0,0,1752,1753,1753,1754,0,0,0,0,0,0,0,0,0,0,0,0,0,
0,0,0,0,0,0,0,0,0,0,0,0,0,1752,1753,1753,1754,0,0,0,0,0,0,0,0,0,0,0,0,0,
0,0,0,0,0,0,0,0,0,0,0,0,0,1752,1753,1753,1754,0,0,0,0,0,0,0,0,0,0,0,0,0,
0,0,0,0,0,0,0,0,0,0,0,0,0,1752,1753,1753,1754,0,0,0,0,0,0,0,0,0,0,0,0,0,
0,0,0,0,0,0,0,0,0,0,0,0,0,1752,1753,1753,1754,0,0,0,0,0,0,0,0,0,0,0,0,0,
0,0,0,0,0,0,0,0,0,0,0,0,0,1752,1753,1753,1754,0,0,0,0,0,0,0,0,0,0,0,0,0,
0,0,0,0,0,0,0,0,0,0,0,0,0,1752,1753,1753,1754,0,0,0,0,0,0,0,0,0,0,0,0,0,
0,0,0,0,0,0,0,0,0,0,0,0,0,1752,1753,1753,1754,0,0,0,0,0,0,0,0,0,0,0,0,0
</data>
 </layer>
 <layer id="4" name="Walls" width="30" height="20">
  <data encoding="csv">
0,0,0,0,0,0,0,0,0,0,0,0,0,1755,1756,1756,1757,0,0,0,0,0,0,0,0,0,0,0,0,0,
0,0,0,0,0,0,0,0,0,0,0,0,0,1772,1773,1773,1774,0,0,0,0,0,0,0,0,0,0,0,0,0,
0,0,0,0,0,0,0,0,0,0,0,0,0,0,0,0,0,0,0,0,0,0,0,0,0,0,0,0,0,0,
0,0,0,0,0,0,0,0,0,0,0,0,0,0,0,0,0,0,0,0,0,0,0,0,0,0,0,0,0,0,
0,0,0,0,0,0,0,0,0,0,0,0,0,0,0,0,0,0,0,0,0,0,0,0,0,0,0,0,0,0,
0,0,0,0,0,0,0,0,0,0,0,0,0,0,0,0,0,0,0,0,0,0,0,0,0,0,0,0,0,0,
1751,397,1755,1756,1756,1756,1756,1756,1756,1756,1756,1756,1757,0,0,0,0,1755,1756,1756,1756,1756,1756,1756,1756,1756,1756,1757,397,1751,
1768,413,1772,1773,1773,1773,1773,1773,1773,1773,1773,1773,1774,0,0,0,0,1772,1773,1773,1773,1773,1773,1773,1773,1773,1773,1774,413,1768,
0,0,0,0,0,0,0,0,0,0,0,0,0,0,0,0,0,0,1790,1790,1790,1790,1790,1790,1790,1790,1790,0,0,0,
0,0,0,0,0,0,0,0,0,0,0,0,0,0,0,0,0,0,0,0,0,0,0,0,0,0,0,0,0,0,
0,0,0,0,0,0,0,0,0,0,0,0,0,0,0,0,0,0,0,0,0,0,0,0,0,0,0,0,0,0,
0,0,0,0,0,0,0,0,0,0,0,0,0,0,0,0,0,0,0,0,0,0,0,0,0,0,0,0,0,0,
0,0,0,0,0,0,0,0,0,0,0,0,0,0,0,0,0,0,0,0,0,0,0,0,0,0,0,0,0,0,
0,0,0,0,0,0,0,0,0,0,0,0,0,0,0,0,0,0,0,0,0,0,0,0,0,0,0,0,0,0,
0,0,0,0,0,0,0,0,0,0,0,0,0,0,0,0,0,0,0,0,0,0,0,0,0,0,0,0,0,0,
0,0,0,0,0,0,0,0,0,0,0,0,0,0,0,0,0,0,0,0,0,0,0,0,0,0,0,0,0,0,
0,0,0,0,0,0,0,0,0,0,0,0,0,0,0,0,0,0,0,0,0,0,0,0,0,0,0,0,0,0,
0,0,0,0,0,0,0,0,0,0,0,0,0,0,0,0,0,0,0,0,0,0,0,0,0,0,0,0,0,0,
0,0,0,0,0,0,0,0,0,0,0,0,0,0,0,0,0,0,0,0,0,0,0,0,0,0,0,0,0,0,
0,0,0,0,0,0,0,0,0,0,0,0,0,0,0,0,0,0,0,0,0,0,0,0,0,0,0,0,0,0
</data>
 </layer>
 <layer id="6" name="Furniture" width="30" height="20">
  <data encoding="csv">
0,0,0,0,0,0,0,0,0,0,0,0,0,0,394,395,0,0,0,0,0,0,0,0,0,0,0,0,0,0,
0,0,0,0,0,0,0,0,0,0,0,0,0,733,410,411,733,0,0,0,0,0,0,0,0,0,0,0,0,0,
0,0,0,0,0,0,0,0,0,0,0,0,0,749,0,0,749,0,0,0,0,0,0,0,0,0,0,0,0,0,
0,0,0,0,0,0,0,0,0,0,0,0,0,0,0,0,0,0,0,0,0,0,0,0,0,0,0,0,0,0,
0,0,0,0,0,0,0,0,0,0,0,0,0,0,0,0,0,0,0,0,0,0,0,0,0,0,0,0,0,0,
0,0,0,0,0,0,0,0,0,0,0,0,0,0,0,0,0,0,0,0,0,0,0,0,0,0,0,0,0,0,
0,0,0,0,0,0,0,0,0,0,0,0,0,0,0,0,0,0,0,0,0,0,0,0,0,0,0,0,0,0,
0,0,0,0,0,0,0,0,0,0,0,0,0,0,0,0,0,0,0,0,0,0,0,0,0,0,0,0,0,0,
0,0,0,0,0,0,0,0,0,0,0,0,0,0,0,0,0,0,0,0,0,0,0,0,0,0,0,0,0,0,
0,0,0,0,0,0,0,0,0,0,0,0,0,0,0,0,0,0,0,0,0,0,0,0,0,0,0,0,0,0,
0,0,0,0,0,0,0,0,0,0,0,0,0,0,0,0,0,0,0,0,0,0,0,0,0,0,0,0,0,0,
0,0,0,0,0,0,0,0,0,0,0,0,0,0,0,0,0,0,0,0,0,0,0,0,0,0,0,0,0,0,
0,0,0,0,0,0,0,0,0,0,0,0,0,0,0,0,0,0,0,0,0,0,0,0,0,0,0,0,0,0,
0,0,0,0,0,0,0,0,0,0,0,0,0,0,0,0,0,0,0,0,0,0,0,0,0,0,0,0,0,0,
0,0,0,0,0,0,0,0,0,0,0,0,0,0,0,0,0,0,0,0,0,0,0,0,0,0,0,0,0,0,
0,0,0,0,0,0,0,0,0,0,0,0,0,0,0,0,0,0,0,0,0,0,0,0,0,0,0,0,0,0,
0,0,0,0,0,0,0,0,0,0,0,0,0,0,0,0,0,0,0,0,0,0,0,0,0,0,0,0,0,0,
0,0,0,0,0,0,0,0,0,0,0,0,0,0,0,0,0,0,0,0,0,0,0,0,0,0,0,0,0,0,
0,0,0,0,0,0,0,0,0,0,0,0,0,0,0,0,0,0,0,0,0,0,0,0,0,0,0,0,0,0,
0,0,0,0,0,0,0,0,0,0,0,0,0,0,0,0,0,0,0,0,0,0,0,0,0,0,0,0,0,0
</data>
 </layer>
 <layer id="7" name="Front Walls" width="30" height="20" opacity="0.63">
  <data encoding="csv">
0,0,0,0,0,0,0,0,0,0,0,0,0,0,0,0,0,0,0,0,0,0,0,0,0,0,0,0,0,0,
0,0,0,0,0,0,0,0,0,0,0,0,0,0,0,0,0,0,0,0,0,0,0,0,0,0,0,0,0,0,
0,0,0,0,0,0,0,0,0,0,0,0,0,0,0,0,0,0,0,0,0,0,0,0,0,0,0,0,0,0,
0,0,0,0,0,0,0,0,0,0,0,0,0,0,0,0,0,0,0,0,0,0,0,0,0,0,0,0,0,0,
0,0,0,0,0,0,0,0,0,0,0,0,0,0,0,0,0,0,0,0,0,0,0,0,0,0,0,0,0,0,
0,0,0,0,0,0,0,0,0,0,0,0,0,0,0,0,0,0,0,0,0,0,0,0,0,0,0,0,0,0,
0,0,0,0,0,0,0,0,0,0,0,0,0,0,0,0,0,0,0,0,0,0,0,0,0,0,0,0,0,0,
0,0,0,0,0,0,0,0,0,0,0,0,0,0,0,0,0,0,0,0,0,0,0,0,0,0,0,0,0,0,
0,0,0,0,0,0,0,0,0,0,0,0,0,0,0,0,0,0,0,0,0,0,0,0,0,0,0,0,0,0,
0,0,0,0,0,0,0,0,0,0,0,0,0,0,0,0,0,0,0,0,0,0,0,0,0,0,0,0,0,0,
1717,2147484045,1721,1722,1722,1722,1722,1722,1722,1722,1722,1722,1723,0,0,0,0,1721,1722,1722,1722,1722,1722,1722,1722,1722,1722,1723,2147484045,1717,
1734,2147484061,1738,1739,1739,1739,1739,1739,1739,1739,1739,1739,1740,0,0,0,0,1738,1739,1739,1739,1739,1739,1739,1739,1739,1739,1740,2147484061,1734,
0,0,0,0,0,0,0,0,0,0,0,0,0,0,0,0,0,0,0,0,0,0,0,0,0,0,0,0,0,0,
0,0,0,0,0,0,0,0,0,0,0,0,0,0,0,0,0,0,0,0,0,0,0,0,0,0,0,0,0,0,
0,0,0,0,0,0,0,0,0,0,0,0,0,0,0,0,0,0,0,0,0,0,0,0,0,0,0,0,0,0,
0,0,0,0,0,0,0,0,0,0,0,0,0,0,0,0,0,0,0,0,0,0,0,0,0,0,0,0,0,0,
0,0,0,0,0,0,0,0,0,0,0,0,0,0,0,0,0,0,0,0,0,0,0,0,0,0,0,0,0,0,
0,0,0,0,0,0,0,0,0,0,0,0,0,0,0,0,0,0,0,0,0,0,0,0,0,0,0,0,0,0,
0,0,0,0,0,0,0,0,0,0,0,0,0,1556,396,2147484044,1556,0,0,0,0,0,0,0,0,0,0,0,0,0,
0,0,0,0,0,0,0,0,0,0,0,0,0,1573,412,2147484060,1573,0,0,0,0,0,0,0,0,0,0,0,0,0
</data>
 </layer>
 <objectgroup id="10" name="Collisions">
  <object id="24" x="0" y="0" width="416" height="230"/>
  <object id="25" x="544" y="0" width="416" height="230"/>
  <object id="26" x="0" y="378" width="416" height="264"/>
  <object id="27" x="544" y="378" width="416" height="264"/>
  <object id="28" x="416" y="32" width="128" height="6"/>
  <object id="29" x="420" y="40" width="24" height="24"/>
  <object id="30" x="516" y="40" width="24" height="24"/>
 </objectgroup>
 <objectgroup id="8" name="Doors">
  <object id="17" x="43.3333" y="226" width="8" height="8">
   <properties>
    <property name="targetScene" value="USClassroom"/>
   </properties>
  </object>
  <object id="18" x="42.6666" y="374.667" width="8" height="8">
   <properties>
    <property name="targetScene" value=""/>
   </properties>
  </object>
  <object id="19" x="907.334" y="226" width="8" height="8">
   <properties>
    <property name="targetScene" value="FrancePrimaryClassroom"/>
   </properties>
  </object>
  <object id="20" x="906.667" y="375.334" width="8" height="8">
   <properties>
    <property name="targetScene" value=""/>
   </properties>
  </object>
  <object id="21" x="476" y="632.667" width="8" height="8">
   <properties>
    <property name="targetScene" value="MainScene"/>
   </properties>
  </object>
 </objectgroup>
</map>
