<?xml version="1.0" encoding="UTF-8"?>
<map version="1.10" tiledversion="1.11.2" orientation="orthogonal" renderorder="right-down" width="13" height="8" tilewidth="32" tileheight="32" infinite="0" nextlayerid="11" nextobjectid="61">
 <editorsettings>
  <export target="usclassroom.json" format="json"/>
 </editorsettings>
 <tileset firstgid="1" name="Room_Builder" tilewidth="32" tileheight="32" tilecount="391" columns="17">
  <image source="../Interior tilesets/Room_Builder.png" width="544" height="736"/>
 </tileset>
 <tileset firstgid="392" name="Furniture" tilewidth="32" tileheight="32" tilecount="1424" columns="16" objectalignment="bottomleft">
  <image source="../Interior tilesets/Furniture.png" width="512" height="2848"/>
 </tileset>
 <layer id="1" name="Floors" width="13" height="8">
  <data encoding="csv">
0,0,0,0,0,0,0,0,0,0,0,0,0,
0,0,0,0,0,0,0,0,0,0,0,0,0,
3221225781,1073742132,1073742132,1073742132,1073742132,1073742132,1073742132,1073742132,1073742132,1073742132,1073742132,1073742132,1073742133,
294,295,295,295,295,295,295,295,295,295,295,295,296,
294,295,295,295,295,295,295,295,295,295,295,295,296,
294,295,295,295,295,295,295,295,295,295,295,295,296,
294,295,295,295,295,295,295,295,295,295,295,295,296,
314,315,315,315,315,315,315,315,315,315,315,315,316
</data>
 </layer>
 <layer id="7" name="Walls" width="13" height="8">
  <data encoding="csv">
297,298,298,298,298,298,298,298,298,298,298,298,299,
314,315,315,315,315,315,315,315,315,315,315,315,316,
0,0,0,0,0,0,0,0,0,0,0,0,0,
0,0,0,0,0,0,0,0,0,0,0,0,0,
0,0,0,0,0,0,0,0,0,0,0,0,0,
0,0,0,0,0,0,0,0,0,0,0,0,0,
0,0,0,0,0,0,0,0,0,0,0,0,0,
0,0,0,0,0,0,0,0,0,0,0,0,0
</data>
 </layer>
 <layer id="2" name="Furniture behind" width="13" height="8">
  <data encoding="csv">
0,0,0,780,781,782,0,0,0,0,1492,1493,0,
0,1042,1043,796,797,798,0,1048,1049,0,1508,1509,0,
0,1058,1059,0,0,0,0,0,0,0,1524,1525,0,
0,0,0,0,0,0,0,0,0,0,0,0,0,
0,0,0,1021,1022,1018,1019,1021,1022,1021,1022,0,0,
991,0,0,0,0,0,0,0,0,0,0,0,0,
0,0,0,1021,1022,1021,1022,1018,1019,1021,1022,0,0,
0,0,0,0,0,0,0,0,0,0,0,0,0
</data>
 </layer>
 <objectgroup id="9" name="Furniture">
  <object id="16" gid="1005" x="96" y="128" width="32" height="32"/>
  <object id="17" gid="1005" x="160" y="128" width="32" height="32"/>
  <object id="18" gid="1005" x="224" y="128" width="32" height="32"/>
  <object id="19" gid="1005" x="288" y="128" width="32" height="32"/>
  <object id="20" gid="1005" x="96" y="192" width="32" height="32"/>
  <object id="21" gid="1005" x="160" y="192" width="32" height="32"/>
  <object id="22" gid="1005" x="224" y="192" width="32" height="32"/>
  <object id="23" gid="1005" x="288" y="192" width="32" height="32"/>
  <object id="24" gid="1003" x="192" y="128" width="32" height="32"/>
  <object id="25" gid="1003" x="256" y="192" width="32" height="32"/>
  <object id="26" gid="1006" x="192" y="192" width="32" height="32"/>
  <object id="27" gid="1006" x="128" y="192" width="32" height="32"/>
  <object id="28" gid="1006" x="128" y="128" width="32" height="32"/>
  <object id="29" gid="1006" x="256" y="128" width="32" height="32"/>
  <object id="30" gid="1006" x="320" y="128" width="32" height="32"/>
  <object id="31" gid="1006" x="320" y="192" width="32" height="32"/>
  <object id="50" gid="992" x="32" y="192" width="32" height="32"/>
  <object id="51" gid="975" x="0" y="160" width="32" height="32"/>
  <object id="53" gid="2147484679" x="0" y="128" width="32" height="32"/>
  <object id="54" gid="2147484695" x="0" y="160" width="32" height="32"/>
  <object id="55" gid="2147484711" x="0" y="192" width="32" height="32"/>
  <object id="56" gid="976" x="32" y="160" width="32" height="32"/>
  <object id="57" gid="960" x="32" y="128" width="32" height="32"/>
 </objectgroup>
 <layer id="3" name="Furniture in front" width="13" height="8">
  <data encoding="csv">
0,0,0,0,0,0,0,0,0,0,0,0,0,
0,0,0,0,0,0,0,0,0,0,0,0,0,
0,0,0,0,0,0,0,0,0,0,0,0,0,
0,961,0,1032,0,1033,0,1224,0,1033,0,0,0,
0,977,0,0,0,0,0,0,0,0,0,0,0,
0,0,0,1033,0,1032,0,1032,0,1224,0,0,0,
0,0,0,0,0,0,0,0,0,0,0,0,0,
0,0,0,0,0,0,0,0,0,0,0,0,0
</data>
 </layer>
 <layer id="4" name="Front Walls" width="13" height="8" opacity="0.63">
  <data encoding="csv">
0,0,0,0,0,0,0,0,0,0,0,0,0,
0,0,0,0,0,0,0,0,0,0,0,0,0,
0,0,0,0,0,0,0,0,0,0,0,0,0,
0,0,0,0,0,0,0,0,0,0,0,0,0,
0,0,0,0,0,0,0,0,0,0,0,0,0,
0,0,0,0,0,0,0,0,0,0,0,0,0,
327,788,331,332,332,332,332,332,332,332,332,332,333,
344,804,348,349,349,349,349,349,349,349,349,349,350
</data>
 </layer>
 <objectgroup id="5" name="Collisions">
  <object id="2" x="105" y="110" width="232" height="12"/>
  <object id="3" x="105" y="174" width="232" height="12"/>
  <object id="4" x="0" y="32" width="416" height="6"/>
  <object id="5" x="32" y="38" width="64" height="20"/>
  <object id="6" x="320" y="38" width="64" height="20"/>
  <object id="7" x="15" y="140" width="18" height="12"/>
  <object id="8" x="32" y="128" width="30" height="38"/>
  <object id="9" x="0" y="250" width="416" height="6"/>
 </objectgroup>
 <objectgroup id="10" name="Interactions">
  <object id="59" name="Info Panel" x="231" y="40" width="48" height="15"/>
 </objectgroup>
 <objectgroup id="6" name="Doors">
  <object id="1" x="44" y="249" width="8" height="8">
   <properties>
    <property name="targetScene" value="Schoolhallway"/>
   </properties>
  </object>
 </objectgroup>
</map>
